X: 15496
T: Glenlivet
R: reel
M: 4/4
K: Cmajor
|:A2 ae cBAc|BAGB gdBG|A2 ae cBAc|BGdB cAAG:|
ABcd ecBA|GdBd gdBG|ABcd ecBA|BGdB cAAG|
ABcd ecBA|GdBd gdBG|AcBd cedf|edcB cAGE|

